svgs/thin/gamepad-modern.svg

<svg xmlns="http://www.w3.org/2000/svg" viewBox="0 0 640 512"><!-- Font Awesome Pro 6.0.0-alpha2 by @fontawesome - https://fontawesome.com License - https://fontawesome.com/license (Commercial License) --><path d="M638.594 368.215L605.219 156.614C596.375 106.362 556.812 65.845 504.563 53.485H504.5C454.25 41.625 371.594 32 320 32C268.375 32 185.719 41.625 135.5 53.485C83.156 65.845 43.625 106.346 34.781 156.614L1.406 368.215C-8.906 426.733 38.813 480 101.5 480C151.188 480 195.281 449.936 211 405.357L218.5 383.997H421.5L429 405.357C444.719 449.936 488.813 480 538.5 480C601.187 480 648.906 426.733 638.594 368.215ZM605.738 433.373C589.406 452.835 564.9 463.999 538.5 463.999C495.52 463.999 457.58 438.295 444.096 400.056L432.84 367.996H207.16L195.91 400.036C182.42 438.295 144.48 463.999 101.5 463.999C75.102 463.999 50.594 452.835 34.262 433.373C19.291 415.537 13.219 393.38 17.211 370.707L50.539 159.387C58.277 115.401 93.07 79.947 139.178 69.056C188.342 57.446 269.459 48.001 320 48.001C370.51 48.001 451.627 57.446 500.824 69.056L501.975 69.322C547.502 80.517 581.783 115.761 589.414 159.106L622.836 370.992C626.781 393.38 620.709 415.537 605.738 433.373ZM256 216.006H200V160.004C200 155.598 196.406 152.004 192 152.004S184 155.598 184 160.004V216.006H128C123.594 216.006 120 219.6 120 224.007S123.594 232.007 128 232.007H184V288.009C184 292.415 187.594 296.009 192 296.009S200 292.415 200 288.009V232.007H256C260.406 232.007 264 228.413 264 224.007S260.406 216.006 256 216.006ZM496 136.004C473.908 136.004 456 153.914 456 176.005S473.908 216.006 496 216.006C518.092 216.006 536 198.096 536 176.005S518.092 136.004 496 136.004ZM496 200.006C482.766 200.006 472 189.24 472 176.005S482.766 152.004 496 152.004S520 162.77 520 176.005S509.234 200.006 496 200.006ZM432 232.007C409.908 232.007 392 249.918 392 272.008C392 294.099 409.908 312.01 432 312.01S472 294.099 472 272.008C472 249.918 454.092 232.007 432 232.007ZM432 296.009C418.766 296.009 408 285.243 408 272.008S418.766 248.008 432 248.008S456 258.774 456 272.008S445.234 296.009 432 296.009Z"/></svg>

<svg xmlns="http://www.w3.org/2000/svg" viewBox="0 0 640 512"><!--! Font Awesome Pro 6.3.0 by @fontawesome - https://fontawesome.com License - https://fontawesome.com/license (Commercial License) Copyright 2023 Fonticons, Inc. --><path d="M640 384.2c0-5.257-.4576-10.6-1.406-15.98l-33.38-211.6C591.4 77.96 522 32 319.1 32C119 32 48.71 77.46 34.78 156.6l-33.38 211.6c-.9487 5.383-1.406 10.72-1.406 15.98c0 51.89 44.58 95.81 101.5 95.81c49.69 0 93.78-30.06 109.5-74.64l7.5-21.36h203l7.5 21.36c15.72 44.58 59.81 74.64 109.5 74.64C595.4 479.1 640 436.1 640 384.2zM624 384.3c0 42.6-37.11 79.69-85.51 79.69c-42.98 0-80.92-25.7-94.4-63.94l-11.26-32.06H207.2l-11.25 32.04c-13.49 38.26-51.43 63.96-94.41 63.96c-48.42 0-85.49-37.07-85.49-79.74c0-4.477 .3958-9.006 1.197-13.56L50.54 159.4c10.14-57.61 54.26-111.4 269.5-111.4c50.51 0 131.6 9.446 180.8 21.06l1.15 .2656c45.53 11.2 79.81 46.44 87.44 89.78l33.42 211.9C623.6 375.5 624 379.9 624 384.3zM256 216h-56v-56c0-4.406-3.594-8-8-8s-8 3.594-8 8v56h-56c-4.406 0-8 3.594-8 8s3.594 8 8 8h56v56c0 4.406 3.594 8 8 8s8-3.594 8-8V232h56c4.406 0 8-3.594 8-8S260.4 216 256 216zM496 135.1c-22.09 0-40 17.91-40 40s17.91 40 40 40s40-17.91 40-40S518.1 135.1 496 135.1zM496 200c-13.23 0-24-10.77-24-24c0-13.23 10.77-24 24-24s24 10.77 24 24C520 189.2 509.2 200 496 200zM432 231.1c-22.09 0-40 17.91-40 40s17.91 40 40 40s40-17.91 40-40S454.1 231.1 432 231.1zM432 296c-13.23 0-24-10.77-24-24s10.77-24 24-24s24 10.77 24 24S445.2 296 432 296z"/></svg>
